brandFactory_export/2.Regular/Formacion_2Regular.svg

<?xml version="1.0" encoding="UTF-8"?>
<svg width="24px" height="24px" viewBox="0 0 24 24" version="1.1" xmlns="http://www.w3.org/2000/svg" xmlns:xlink="http://www.w3.org/1999/xlink">
    <title>2.Regular/Formacion_2Regular</title>
    <g id="Symbols" stroke="none" stroke-width="1" fill="none" fill-rule="evenodd">
        <g id="2.Regular/Formacion_2Regular" fill="#5CB615" fill-rule="nonzero">
            <path d="M1.44201681,19.502521 L7.67394958,19.502521 C7.65042017,19.3378151 7.63697479,19.1697479 7.63361345,19.0016807 L7.63361345,14 C7.63361345,13.7680672 7.66386555,13.5563025 7.69411765,13.3546218 L6.39327731,13.3546218 C4.79663866,13.3546218 3.48907563,13.8285714 2.63193277,14.7193277 C1.85210084,15.5361345 1.43865546,16.692437 1.43865546,18.0470588 L1.44201681,19.502521 L1.44201681,19.502521 Z M9.0789916,14 L9.0789916,19.0016807 C9.0789916,19.405042 9.15630252,19.7042017 9.30084034,19.8487395 C9.49243697,20.0504202 9.92605042,20.0806723 10.1647059,20.0806723 L20.8134454,20.0806723 C21.0521008,20.0806723 21.4756303,20.0504202 21.6773109,19.8487395 C21.8117647,19.7042017 21.8890756,19.3983193 21.8890756,19.0016807 L21.8890756,13.989916 C21.8890756,13.5932773 21.8117647,13.297479 21.6773109,13.1630252 C21.5327731,13.0184874 21.2235294,12.9310924 20.8134454,12.9310924 L10.1647059,12.9411765 C9.74117647,12.9411765 9.43529412,13.0184874 9.30084034,13.1630252 C9.15966387,13.307563 9.0789916,13.6067227 9.0789916,14 L9.0789916,14 Z M10.1680672,21.5226891 C9.39831933,21.5226891 8.81008403,21.3310924 8.37983193,20.9445378 L1.28067227,20.9445378 C0.578151261,20.9445378 0,20.3764706 0,19.6739496 L0,18.0504202 C0,16.3092437 0.54789916,14.8168067 1.59663866,13.7310924 C2.73277311,12.5378151 4.39663866,11.912605 6.39663866,11.912605 L8.57142857,11.912605 C8.97478992,11.6436975 9.50252101,11.4991597 10.1680672,11.4991597 L20.8168067,11.4890756 C21.6537815,11.4890756 22.2890756,11.7109244 22.7092437,12.1512605 C23.1226891,12.5747899 23.3344538,13.189916 23.3344538,13.989916 L23.3344538,19.0016807 C23.3344538,19.8016807 23.1327731,20.4168067 22.7193277,20.8470588 C22.2857143,21.2907563 21.6403361,21.5226891 20.8168067,21.5226891 L10.1680672,21.5226891 L10.1680672,21.5226891 Z M6.29915966,2.48403361 C5.58991597,3.17647059 5.22352941,4.23529412 5.22352941,5.6302521 C5.22352941,7.03193277 5.58991597,8.0907563 6.29915966,8.77647059 C6.99159664,9.43865546 8.02016807,9.77815126 9.36806723,9.77815126 C10.7260504,9.77815126 11.7546218,9.44201681 12.4470588,8.77647059 C13.1697479,8.08403361 13.5361345,7.02521008 13.5361345,5.6302521 C13.5361345,4.23193277 13.1697479,3.17647059 12.4470588,2.48403361 C11.7546218,1.81176471 10.7159664,1.47563025 9.36806723,1.47563025 C8.03361345,1.47563025 6.99495798,1.81176471 6.29915966,2.48403361 L6.29915966,2.48403361 Z M9.36806723,11.2201681 C7.63697479,11.2201681 6.27226891,10.7495798 5.30084034,9.81512605 C4.28907563,8.84369748 3.78151261,7.43865546 3.78151261,5.6302521 C3.78151261,3.82857143 4.28907563,2.41680672 5.30084034,1.44537815 C6.27226891,0.504201681 7.63697479,0.0302521008 9.36806723,0.0302521008 C11.0991597,0.0302521008 12.4773109,0.500840336 13.4487395,1.44537815 C14.4672269,2.41680672 14.9781513,3.83193277 14.9781513,5.6302521 C14.9781513,7.43865546 14.4672269,8.84369748 13.4487395,9.81512605 C12.4773109,10.7495798 11.1092437,11.2201681 9.36806723,11.2201681 Z M23.6235294,22.9344538 C23.6235294,23.3378151 23.297479,23.6571429 22.9008403,23.6571429 L8.11764706,23.6571429 C7.71764706,23.6571429 7.39495798,23.3344538 7.39495798,22.9344538 C7.39495798,22.5344538 7.71764706,22.2117647 8.11764706,22.2117647 L22.9008403,22.2117647 C23.2941176,22.2151261 23.6235294,22.5411765 23.6235294,22.9344538 Z" id="Formacion_2Regular"></path>
        </g>
    </g>
</svg>

<svg width="24" height="24" viewBox="0 0 24 24" xmlns="http://www.w3.org/2000/svg"><path d="M1.442 19.503h6.232a4.135 4.135 0 01-.04-.501V14c0-.232.03-.444.06-.645h-1.3c-1.597 0-2.905.474-3.762 1.364-.78.817-1.193 1.973-1.193 3.328l.003 1.456zM9.079 14v5.002c0 .403.077.702.222.847.191.201.625.232.864.232h10.648c.24 0 .663-.03.864-.232.135-.145.212-.45.212-.847V13.99c0-.397-.077-.693-.212-.827-.144-.145-.453-.232-.864-.232l-10.648.01c-.424 0-.73.077-.864.222-.141.145-.222.444-.222.837zm1.09 7.523c-.77 0-1.359-.192-1.79-.578H1.282C.578 20.945 0 20.376 0 19.674V18.05c0-1.74.548-3.233 1.597-4.319 1.136-1.193 2.8-1.818 4.8-1.818H8.57c.404-.27.932-.414 1.597-.414l10.649-.01c.837 0 1.472.222 1.892.662.414.424.625 1.039.625 1.839v5.012c0 .8-.201 1.415-.615 1.845-.433.444-1.079.676-1.902.676H10.168zM6.298 2.484c-.71.692-1.075 1.751-1.075 3.146 0 1.402.366 2.46 1.075 3.146.693.663 1.721 1.002 3.07 1.002 1.357 0 2.386-.336 3.078-1.002.723-.692 1.09-1.75 1.09-3.146 0-1.398-.367-2.454-1.09-3.146-.692-.672-1.731-1.008-3.079-1.008-1.334 0-2.373.336-3.069 1.008zm3.07 8.736c-1.732 0-3.097-.47-4.068-1.405C4.289 8.844 3.78 7.44 3.78 5.63c0-1.801.508-3.213 1.52-4.185C6.272.505 7.637.03 9.368.03c1.731 0 3.11.47 4.08 1.415 1.02.972 1.53 2.387 1.53 4.185 0 1.809-.51 3.214-1.53 4.185-.97.935-2.339 1.405-4.08 1.405zm14.255 11.714a.722.722 0 01-.723.723H8.118a.722.722 0 110-1.445H22.9c.393.003.723.33.723.722z" fill="#5CB615" fill-rule="nonzero"/></svg>
